src/assets/logo.svg

<?xml version="1.0" encoding="UTF-8" standalone="no"?><!DOCTYPE svg PUBLIC "-//W3C//DTD SVG 1.1//EN" "http://www.w3.org/Graphics/SVG/1.1/DTD/svg11.dtd"><svg width="100%" height="100%" viewBox="0 0 64 64" version="1.1" xmlns="http://www.w3.org/2000/svg" xmlns:xlink="http://www.w3.org/1999/xlink" xml:space="preserve" xmlns:serif="http://www.serif.com/" style="fill-rule:evenodd;clip-rule:evenodd;stroke-linejoin:round;stroke-miterlimit:1.41421;"><rect id="Artboard1" x="0" y="0" width="64" height="64" style="fill:none;"/><g id="Artboard11" serif:id="Artboard1"><path d="M13.2,37.23c-0.644,0 -1.225,-0.159 -1.743,-0.476c-0.518,-0.317 -0.926,-0.777 -1.225,-1.379c-0.299,-0.602 -0.448,-1.314 -0.448,-2.135c0,-1.419 0.303,-2.732 0.91,-3.941c0.607,-1.209 1.503,-2.179 2.688,-2.912c1.185,-0.733 2.609,-1.099 4.27,-1.099c0.429,0 0.889,0.033 1.379,0.098c0.49,0.065 0.936,0.163 1.337,0.294c0.261,0.075 0.392,0.261 0.392,0.56c0,0.243 -0.091,0.471 -0.273,0.686c-0.182,0.215 -0.394,0.322 -0.637,0.322c-0.075,0 -0.131,-0.005 -0.168,-0.014c-0.485,-0.112 -0.901,-0.194 -1.246,-0.245c-0.345,-0.051 -0.709,-0.077 -1.092,-0.077c-1.185,0 -2.193,0.287 -3.024,0.861c-0.831,0.574 -1.451,1.332 -1.862,2.275c-0.411,0.943 -0.616,1.96 -0.616,3.052c0,0.793 0.156,1.407 0.469,1.841c0.313,0.434 0.721,0.651 1.225,0.651c0.569,0 1.069,-0.233 1.498,-0.7c0.429,-0.467 0.821,-1.223 1.176,-2.268c0.355,-1.045 0.705,-2.464 1.05,-4.256c0.056,-0.261 0.168,-0.439 0.336,-0.532c0.168,-0.093 0.392,-0.14 0.672,-0.14c0.663,0 0.994,0.215 0.994,0.644c0,0.075 -0.014,0.168 -0.042,0.28c-0.243,0.905 -0.464,1.906 -0.665,3.003c-0.201,1.097 -0.301,1.93 -0.301,2.499c0,0.504 0.075,0.87 0.224,1.099c0.149,0.229 0.378,0.343 0.686,0.343c0.299,0 0.583,-0.1 0.854,-0.301c0.271,-0.201 0.611,-0.544 1.022,-1.029c0.112,-0.131 0.238,-0.196 0.378,-0.196c0.121,0 0.217,0.056 0.287,0.168c0.07,0.112 0.105,0.266 0.105,0.462c0,0.364 -0.089,0.653 -0.266,0.868c-0.457,0.551 -0.905,0.971 -1.344,1.26c-0.439,0.289 -0.975,0.434 -1.61,0.434c-0.653,0 -1.181,-0.189 -1.582,-0.567c-0.401,-0.378 -0.653,-0.912 -0.756,-1.603c-0.691,1.447 -1.708,2.17 -3.052,2.17Z" style="fill:#fff;fill-rule:nonzero;stroke:#fff;stroke-width:1px;"/><path d="M24.162,37.23c-0.411,0 -0.721,-0.112 -0.931,-0.336c-0.21,-0.224 -0.315,-0.518 -0.315,-0.882c0,-0.42 0.119,-0.756 0.357,-1.008c0.238,-0.252 0.572,-0.378 1.001,-0.378c0.411,0 0.721,0.1 0.931,0.301c0.21,0.201 0.315,0.497 0.315,0.889c0,0.429 -0.121,0.772 -0.364,1.029c-0.243,0.257 -0.574,0.385 -0.994,0.385Z" style="fill:#fff;fill-rule:nonzero;stroke:#fff;stroke-width:1px;"/><path d="M33.08,37.23c-0.345,0 -0.593,-0.077 -0.742,-0.231c-0.149,-0.154 -0.224,-0.446 -0.224,-0.875c0,-0.289 0.03,-0.66 0.091,-1.113c0.061,-0.453 0.161,-1.076 0.301,-1.869c0.243,-1.465 0.434,-2.735 0.574,-3.808c0.084,-0.672 0.126,-1.232 0.126,-1.68c0,-0.42 -0.154,-0.63 -0.462,-0.63c-0.243,0 -0.534,0.124 -0.875,0.371c-0.341,0.247 -0.716,0.642 -1.127,1.183c-0.131,0.177 -0.275,0.266 -0.434,0.266c-0.131,0 -0.245,-0.063 -0.343,-0.189c-0.098,-0.126 -0.147,-0.268 -0.147,-0.427c0,-0.149 0.03,-0.301 0.091,-0.455c0.061,-0.154 0.161,-0.329 0.301,-0.525c0.448,-0.625 0.947,-1.108 1.498,-1.449c0.551,-0.341 1.101,-0.511 1.652,-0.511c0.513,0 0.908,0.163 1.183,0.49c0.275,0.327 0.413,0.803 0.413,1.428c0,0.252 -0.023,0.548 -0.07,0.889c-0.047,0.341 -0.089,0.618 -0.126,0.833c-0.037,0.215 -0.065,0.364 -0.084,0.448c0.532,-1.521 1.129,-2.583 1.792,-3.185c0.663,-0.602 1.391,-0.903 2.184,-0.903c0.607,0 1.085,0.215 1.435,0.644c0.35,0.429 0.525,1.036 0.525,1.82c0,0.308 -0.042,0.691 -0.126,1.148c0.467,-1.288 1.013,-2.212 1.638,-2.772c0.625,-0.56 1.344,-0.84 2.156,-0.84c0.653,0 1.155,0.21 1.505,0.63c0.35,0.42 0.525,1.008 0.525,1.764c0,0.411 -0.061,0.91 -0.182,1.498l-0.854,4.004c-0.093,0.467 -0.14,0.868 -0.14,1.204c0,0.392 0.091,0.686 0.273,0.882c0.182,0.196 0.436,0.294 0.763,0.294c0.308,0 0.609,-0.103 0.903,-0.308c0.294,-0.205 0.642,-0.546 1.043,-1.022c0.112,-0.131 0.238,-0.196 0.378,-0.196c0.121,0 0.217,0.056 0.287,0.168c0.07,0.112 0.105,0.266 0.105,0.462c0,0.364 -0.089,0.653 -0.266,0.868c-0.485,0.588 -0.966,1.017 -1.442,1.288c-0.476,0.271 -0.975,0.406 -1.498,0.406c-0.793,0 -1.414,-0.236 -1.862,-0.707c-0.448,-0.471 -0.672,-1.104 -0.672,-1.897c0,-0.551 0.112,-1.349 0.336,-2.394l0.56,-2.562c0.019,-0.084 0.051,-0.233 0.098,-0.448c0.047,-0.215 0.084,-0.418 0.112,-0.609c0.028,-0.191 0.042,-0.38 0.042,-0.567c0,-0.327 -0.063,-0.572 -0.189,-0.735c-0.126,-0.163 -0.306,-0.245 -0.539,-0.245c-0.439,0 -0.898,0.282 -1.379,0.847c-0.481,0.565 -0.938,1.5 -1.372,2.807c-0.434,1.307 -0.786,3.005 -1.057,5.096c-0.065,0.56 -0.18,0.936 -0.343,1.127c-0.163,0.191 -0.427,0.287 -0.791,0.287c-0.317,0 -0.548,-0.075 -0.693,-0.224c-0.145,-0.149 -0.217,-0.429 -0.217,-0.84c0,-0.383 0.051,-0.884 0.154,-1.505c0.103,-0.621 0.233,-1.351 0.392,-2.191c0.429,-2.259 0.644,-3.715 0.644,-4.368c0,-0.355 -0.068,-0.616 -0.203,-0.784c-0.135,-0.168 -0.338,-0.252 -0.609,-0.252c-0.457,0 -0.929,0.259 -1.414,0.777c-0.485,0.518 -0.959,1.437 -1.421,2.758c-0.462,1.321 -0.847,3.106 -1.155,5.355c-0.065,0.476 -0.161,0.807 -0.287,0.994c-0.126,0.187 -0.371,0.28 -0.735,0.28Z" style="fill:#fff;fill-rule:nonzero;stroke:#fff;stroke-width:1px;"/><path d="M51.238,37.23c-0.411,0 -0.721,-0.112 -0.931,-0.336c-0.21,-0.224 -0.315,-0.518 -0.315,-0.882c0,-0.42 0.119,-0.756 0.357,-1.008c0.238,-0.252 0.572,-0.378 1.001,-0.378c0.411,0 0.721,0.1 0.931,0.301c0.21,0.201 0.315,0.497 0.315,0.889c0,0.429 -0.121,0.772 -0.364,1.029c-0.243,0.257 -0.574,0.385 -0.994,0.385Z" style="fill:#fff;fill-rule:nonzero;stroke:#fff;stroke-width:1px;"/><ellipse cx="32" cy="31" rx="28" ry="27" style="fill:#ebebeb;fill-opacity:0;stroke:#fff;stroke-width:1px;stroke-linecap:round;stroke-miterlimit:1.5;"/></g></svg>

<?xml version="1.0" standalone="no"?><!-- Generator: Gravit.io --><svg xmlns="http://www.w3.org/2000/svg" xmlns:xlink="http://www.w3.org/1999/xlink" style="isolation:isolate" viewBox="0 0 64 64" width="64" height="64"><defs><clipPath id="_clipPath_zCqpdla2haPQifeluWtNN0JrT1zQJ7ca"><rect width="64" height="64"/></clipPath></defs><g clip-path="url(#_clipPath_zCqpdla2haPQifeluWtNN0JrT1zQJ7ca)"><rect x="0" y="0" width="64" height="64" transform="matrix(1,0,0,1,0,0)" fill="none"/><g><mask id="_mask_SDCcwb66DFc7TNAXd2aRqhW46jZKisRW" x="-200%" y="-200%" width="400%" height="400%"><rect x="-200%" y="-200%" width="400%" height="400%" style="fill:white;"/><path d=" M 13.2 37.23 C 12.556 37.23 11.975 37.071 11.457 36.754 C 10.939 36.437 10.531 35.977 10.232 35.375 C 9.933 34.773 9.784 34.061 9.784 33.24 C 9.784 31.821 10.087 30.508 10.694 29.299 C 11.301 28.09 12.197 27.12 13.382 26.387 C 14.567 25.654 15.991 25.288 17.652 25.288 C 18.081 25.288 18.541 25.321 19.031 25.386 C 19.521 25.451 19.967 25.549 20.368 25.68 C 20.629 25.755 20.76 25.941 20.76 26.24 C 20.76 26.483 20.669 26.711 20.487 26.926 C 20.305 27.141 20.093 27.248 19.85 27.248 C 19.775 27.248 19.719 27.243 19.682 27.234 C 19.197 27.122 18.781 27.04 18.436 26.989 C 18.091 26.938 17.727 26.912 17.344 26.912 C 16.159 26.912 15.151 27.199 14.32 27.773 C 13.489 28.347 12.869 29.105 12.458 30.048 C 12.047 30.991 11.842 32.008 11.842 33.1 C 11.842 33.893 11.998 34.507 12.311 34.941 C 12.624 35.375 13.032 35.592 13.536 35.592 C 14.105 35.592 14.605 35.359 15.034 34.892 C 15.463 34.425 15.855 33.669 16.21 32.624 C 16.565 31.579 16.915 30.16 17.26 28.368 C 17.316 28.107 17.428 27.929 17.596 27.836 C 17.764 27.743 17.988 27.696 18.268 27.696 C 18.931 27.696 19.262 27.911 19.262 28.34 C 19.262 28.415 19.248 28.508 19.22 28.62 C 18.977 29.525 18.756 30.526 18.555 31.623 C 18.354 32.72 18.254 33.553 18.254 34.122 C 18.254 34.626 18.329 34.992 18.478 35.221 C 18.627 35.45 18.856 35.564 19.164 35.564 C 19.463 35.564 19.747 35.464 20.018 35.263 C 20.289 35.062 20.629 34.719 21.04 34.234 C 21.152 34.103 21.278 34.038 21.418 34.038 C 21.539 34.038 21.635 34.094 21.705 34.206 C 21.775 34.318 21.81 34.472 21.81 34.668 C 21.81 35.032 21.721 35.321 21.544 35.536 C 21.087 36.087 20.639 36.507 20.2 36.796 C 19.761 37.085 19.225 37.23 18.59 37.23 C 17.937 37.23 17.409 37.041 17.008 36.663 C 16.607 36.285 16.355 35.751 16.252 35.06 C 15.561 36.507 14.544 37.23 13.2 37.23 Z " fill="black" stroke="none"/></mask><path d=" M 13.2 37.23 C 12.556 37.23 11.975 37.071 11.457 36.754 C 10.939 36.437 10.531 35.977 10.232 35.375 C 9.933 34.773 9.784 34.061 9.784 33.24 C 9.784 31.821 10.087 30.508 10.694 29.299 C 11.301 28.09 12.197 27.12 13.382 26.387 C 14.567 25.654 15.991 25.288 17.652 25.288 C 18.081 25.288 18.541 25.321 19.031 25.386 C 19.521 25.451 19.967 25.549 20.368 25.68 C 20.629 25.755 20.76 25.941 20.76 26.24 C 20.76 26.483 20.669 26.711 20.487 26.926 C 20.305 27.141 20.093 27.248 19.85 27.248 C 19.775 27.248 19.719 27.243 19.682 27.234 C 19.197 27.122 18.781 27.04 18.436 26.989 C 18.091 26.938 17.727 26.912 17.344 26.912 C 16.159 26.912 15.151 27.199 14.32 27.773 C 13.489 28.347 12.869 29.105 12.458 30.048 C 12.047 30.991 11.842 32.008 11.842 33.1 C 11.842 33.893 11.998 34.507 12.311 34.941 C 12.624 35.375 13.032 35.592 13.536 35.592 C 14.105 35.592 14.605 35.359 15.034 34.892 C 15.463 34.425 15.855 33.669 16.21 32.624 C 16.565 31.579 16.915 30.16 17.26 28.368 C 17.316 28.107 17.428 27.929 17.596 27.836 C 17.764 27.743 17.988 27.696 18.268 27.696 C 18.931 27.696 19.262 27.911 19.262 28.34 C 19.262 28.415 19.248 28.508 19.22 28.62 C 18.977 29.525 18.756 30.526 18.555 31.623 C 18.354 32.72 18.254 33.553 18.254 34.122 C 18.254 34.626 18.329 34.992 18.478 35.221 C 18.627 35.45 18.856 35.564 19.164 35.564 C 19.463 35.564 19.747 35.464 20.018 35.263 C 20.289 35.062 20.629 34.719 21.04 34.234 C 21.152 34.103 21.278 34.038 21.418 34.038 C 21.539 34.038 21.635 34.094 21.705 34.206 C 21.775 34.318 21.81 34.472 21.81 34.668 C 21.81 35.032 21.721 35.321 21.544 35.536 C 21.087 36.087 20.639 36.507 20.2 36.796 C 19.761 37.085 19.225 37.23 18.59 37.23 C 17.937 37.23 17.409 37.041 17.008 36.663 C 16.607 36.285 16.355 35.751 16.252 35.06 C 15.561 36.507 14.544 37.23 13.2 37.23 Z " fill="rgb(255,255,255)" mask="url(#_mask_SDCcwb66DFc7TNAXd2aRqhW46jZKisRW)" vector-effect="non-scaling-stroke" stroke-width="2" stroke="rgb(255,255,255)" stroke-linejoin="round" stroke-linecap="butt" stroke-miterlimit="1.41421"/><mask id="_mask_TmXHQwtEP3q4KFj8ZoAAiA3RcLY1r9ks" x="-200%" y="-200%" width="400%" height="400%"><rect x="-200%" y="-200%" width="400%" height="400%" style="fill:white;"/><path d=" M 24.162 37.23 C 23.751 37.23 23.441 37.118 23.231 36.894 C 23.021 36.67 22.916 36.376 22.916 36.012 C 22.916 35.592 23.035 35.256 23.273 35.004 C 23.511 34.752 23.845 34.626 24.274 34.626 C 24.685 34.626 24.995 34.726 25.205 34.927 C 25.415 35.128 25.52 35.424 25.52 35.816 C 25.52 36.245 25.399 36.588 25.156 36.845 C 24.913 37.102 24.582 37.23 24.162 37.23 Z " fill="black" stroke="none"/></mask><path d=" M 24.162 37.23 C 23.751 37.23 23.441 37.118 23.231 36.894 C 23.021 36.67 22.916 36.376 22.916 36.012 C 22.916 35.592 23.035 35.256 23.273 35.004 C 23.511 34.752 23.845 34.626 24.274 34.626 C 24.685 34.626 24.995 34.726 25.205 34.927 C 25.415 35.128 25.52 35.424 25.52 35.816 C 25.52 36.245 25.399 36.588 25.156 36.845 C 24.913 37.102 24.582 37.23 24.162 37.23 Z " fill="rgb(255,255,255)" mask="url(#_mask_TmXHQwtEP3q4KFj8ZoAAiA3RcLY1r9ks)" vector-effect="non-scaling-stroke" stroke-width="2" stroke="rgb(255,255,255)" stroke-linejoin="round" stroke-linecap="butt" stroke-miterlimit="1.41421"/><mask id="_mask_1IXx6HqeyS7ZhWAYOUA3xLfLVp7mAUrL" x="-200%" y="-200%" width="400%" height="400%"><rect x="-200%" y="-200%" width="400%" height="400%" style="fill:white;"/><path d=" M 33.08 37.23 C 32.735 37.23 32.487 37.153 32.338 36.999 C 32.189 36.845 32.114 36.553 32.114 36.124 C 32.114 35.835 32.144 35.464 32.205 35.011 C 32.266 34.558 32.366 33.935 32.506 33.142 C 32.749 31.677 32.94 30.407 33.08 29.334 C 33.164 28.662 33.206 28.102 33.206 27.654 C 33.206 27.234 33.052 27.024 32.744 27.024 C 32.501 27.024 32.21 27.148 31.869 27.395 C 31.528 27.642 31.153 28.037 30.742 28.578 C 30.611 28.755 30.467 28.844 30.308 28.844 C 30.177 28.844 30.063 28.781 29.965 28.655 C 29.867 28.529 29.818 28.387 29.818 28.228 C 29.818 28.079 29.848 27.927 29.909 27.773 C 29.97 27.619 30.07 27.444 30.21 27.248 C 30.658 26.623 31.157 26.14 31.708 25.799 C 32.259 25.458 32.809 25.288 33.36 25.288 C 33.873 25.288 34.268 25.451 34.543 25.778 C 34.818 26.105 34.956 26.581 34.956 27.206 C 34.956 27.458 34.933 27.754 34.886 28.095 C 34.839 28.436 34.797 28.713 34.76 28.928 C 34.723 29.143 34.695 29.292 34.676 29.376 C 35.208 27.855 35.805 26.793 36.468 26.191 C 37.131 25.589 37.859 25.288 38.652 25.288 C 39.259 25.288 39.737 25.503 40.087 25.932 C 40.437 26.361 40.612 26.968 40.612 27.752 C 40.612 28.06 40.57 28.443 40.486 28.9 C 40.953 27.612 41.499 26.688 42.124 26.128 C 42.749 25.568 43.468 25.288 44.28 25.288 C 44.933 25.288 45.435 25.498 45.785 25.918 C 46.135 26.338 46.31 26.926 46.31 27.682 C 46.31 28.093 46.249 28.592 46.128 29.18 L 45.274 33.184 C 45.181 33.651 45.134 34.052 45.134 34.388 C 45.134 34.78 45.225 35.074 45.407 35.27 C 45.589 35.466 45.843 35.564 46.17 35.564 C 46.478 35.564 46.779 35.461 47.073 35.256 C 47.367 35.051 47.715 34.71 48.116 34.234 C 48.228 34.103 48.354 34.038 48.494 34.038 C 48.615 34.038 48.711 34.094 48.781 34.206 C 48.851 34.318 48.886 34.472 48.886 34.668 C 48.886 35.032 48.797 35.321 48.62 35.536 C 48.135 36.124 47.654 36.553 47.178 36.824 C 46.702 37.095 46.203 37.23 45.68 37.23 C 44.887 37.23 44.266 36.994 43.818 36.523 C 43.37 36.052 43.146 35.419 43.146 34.626 C 43.146 34.075 43.258 33.277 43.482 32.232 L 44.042 29.67 C 44.061 29.586 44.093 29.437 44.14 29.222 C 44.187 29.007 44.224 28.804 44.252 28.613 C 44.28 28.422 44.294 28.233 44.294 28.046 C 44.294 27.719 44.231 27.474 44.105 27.311 C 43.979 27.148 43.799 27.066 43.566 27.066 C 43.127 27.066 42.668 27.348 42.187 27.913 C 41.706 28.478 41.249 29.413 40.815 30.72 C 40.381 32.027 40.029 33.725 39.758 35.816 C 39.693 36.376 39.578 36.752 39.415 36.943 C 39.252 37.134 38.988 37.23 38.624 37.23 C 38.307 37.23 38.076 37.155 37.931 37.006 C 37.786 36.857 37.714 36.577 37.714 36.166 C 37.714 35.783 37.765 35.282 37.868 34.661 C 37.971 34.04 38.101 33.31 38.26 32.47 C 38.689 30.211 38.904 28.755 38.904 28.102 C 38.904 27.747 38.836 27.486 38.701 27.318 C 38.566 27.15 38.363 27.066 38.092 27.066 C 37.635 27.066 37.163 27.325 36.678 27.843 C 36.193 28.361 35.719 29.28 35.257 30.601 C 34.795 31.922 34.41 33.707 34.102 35.956 C 34.037 36.432 33.941 36.763 33.815 36.95 C 33.689 37.137 33.444 37.23 33.08 37.23 Z " fill="black" stroke="none"/></mask><path d=" M 33.08 37.23 C 32.735 37.23 32.487 37.153 32.338 36.999 C 32.189 36.845 32.114 36.553 32.114 36.124 C 32.114 35.835 32.144 35.464 32.205 35.011 C 32.266 34.558 32.366 33.935 32.506 33.142 C 32.749 31.677 32.94 30.407 33.08 29.334 C 33.164 28.662 33.206 28.102 33.206 27.654 C 33.206 27.234 33.052 27.024 32.744 27.024 C 32.501 27.024 32.21 27.148 31.869 27.395 C 31.528 27.642 31.153 28.037 30.742 28.578 C 30.611 28.755 30.467 28.844 30.308 28.844 C 30.177 28.844 30.063 28.781 29.965 28.655 C 29.867 28.529 29.818 28.387 29.818 28.228 C 29.818 28.079 29.848 27.927 29.909 27.773 C 29.97 27.619 30.07 27.444 30.21 27.248 C 30.658 26.623 31.157 26.14 31.708 25.799 C 32.259 25.458 32.809 25.288 33.36 25.288 C 33.873 25.288 34.268 25.451 34.543 25.778 C 34.818 26.105 34.956 26.581 34.956 27.206 C 34.956 27.458 34.933 27.754 34.886 28.095 C 34.839 28.436 34.797 28.713 34.76 28.928 C 34.723 29.143 34.695 29.292 34.676 29.376 C 35.208 27.855 35.805 26.793 36.468 26.191 C 37.131 25.589 37.859 25.288 38.652 25.288 C 39.259 25.288 39.737 25.503 40.087 25.932 C 40.437 26.361 40.612 26.968 40.612 27.752 C 40.612 28.06 40.57 28.443 40.486 28.9 C 40.953 27.612 41.499 26.688 42.124 26.128 C 42.749 25.568 43.468 25.288 44.28 25.288 C 44.933 25.288 45.435 25.498 45.785 25.918 C 46.135 26.338 46.31 26.926 46.31 27.682 C 46.31 28.093 46.249 28.592 46.128 29.18 L 45.274 33.184 C 45.181 33.651 45.134 34.052 45.134 34.388 C 45.134 34.78 45.225 35.074 45.407 35.27 C 45.589 35.466 45.843 35.564 46.17 35.564 C 46.478 35.564 46.779 35.461 47.073 35.256 C 47.367 35.051 47.715 34.71 48.116 34.234 C 48.228 34.103 48.354 34.038 48.494 34.038 C 48.615 34.038 48.711 34.094 48.781 34.206 C 48.851 34.318 48.886 34.472 48.886 34.668 C 48.886 35.032 48.797 35.321 48.62 35.536 C 48.135 36.124 47.654 36.553 47.178 36.824 C 46.702 37.095 46.203 37.23 45.68 37.23 C 44.887 37.23 44.266 36.994 43.818 36.523 C 43.37 36.052 43.146 35.419 43.146 34.626 C 43.146 34.075 43.258 33.277 43.482 32.232 L 44.042 29.67 C 44.061 29.586 44.093 29.437 44.14 29.222 C 44.187 29.007 44.224 28.804 44.252 28.613 C 44.28 28.422 44.294 28.233 44.294 28.046 C 44.294 27.719 44.231 27.474 44.105 27.311 C 43.979 27.148 43.799 27.066 43.566 27.066 C 43.127 27.066 42.668 27.348 42.187 27.913 C 41.706 28.478 41.249 29.413 40.815 30.72 C 40.381 32.027 40.029 33.725 39.758 35.816 C 39.693 36.376 39.578 36.752 39.415 36.943 C 39.252 37.134 38.988 37.23 38.624 37.23 C 38.307 37.23 38.076 37.155 37.931 37.006 C 37.786 36.857 37.714 36.577 37.714 36.166 C 37.714 35.783 37.765 35.282 37.868 34.661 C 37.971 34.04 38.101 33.31 38.26 32.47 C 38.689 30.211 38.904 28.755 38.904 28.102 C 38.904 27.747 38.836 27.486 38.701 27.318 C 38.566 27.15 38.363 27.066 38.092 27.066 C 37.635 27.066 37.163 27.325 36.678 27.843 C 36.193 28.361 35.719 29.28 35.257 30.601 C 34.795 31.922 34.41 33.707 34.102 35.956 C 34.037 36.432 33.941 36.763 33.815 36.95 C 33.689 37.137 33.444 37.23 33.08 37.23 Z " fill="rgb(255,255,255)" mask="url(#_mask_1IXx6HqeyS7ZhWAYOUA3xLfLVp7mAUrL)" vector-effect="non-scaling-stroke" stroke-width="2" stroke="rgb(255,255,255)" stroke-linejoin="round" stroke-linecap="butt" stroke-miterlimit="1.41421"/><mask id="_mask_W2En9EcZMO8dKWRrXyjnmG15PrYeFCKd" x="-200%" y="-200%" width="400%" height="400%"><rect x="-200%" y="-200%" width="400%" height="400%" style="fill:white;"/><path d=" M 51.238 37.23 C 50.827 37.23 50.517 37.118 50.307 36.894 C 50.097 36.67 49.992 36.376 49.992 36.012 C 49.992 35.592 50.111 35.256 50.349 35.004 C 50.587 34.752 50.921 34.626 51.35 34.626 C 51.761 34.626 52.071 34.726 52.281 34.927 C 52.491 35.128 52.596 35.424 52.596 35.816 C 52.596 36.245 52.475 36.588 52.232 36.845 C 51.989 37.102 51.658 37.23 51.238 37.23 Z " fill="black" stroke="none"/></mask><path d=" M 51.238 37.23 C 50.827 37.23 50.517 37.118 50.307 36.894 C 50.097 36.67 49.992 36.376 49.992 36.012 C 49.992 35.592 50.111 35.256 50.349 35.004 C 50.587 34.752 50.921 34.626 51.35 34.626 C 51.761 34.626 52.071 34.726 52.281 34.927 C 52.491 35.128 52.596 35.424 52.596 35.816 C 52.596 36.245 52.475 36.588 52.232 36.845 C 51.989 37.102 51.658 37.23 51.238 37.23 Z " fill="rgb(255,255,255)" mask="url(#_mask_W2En9EcZMO8dKWRrXyjnmG15PrYeFCKd)" vector-effect="non-scaling-stroke" stroke-width="2" stroke="rgb(255,255,255)" stroke-linejoin="round" stroke-linecap="butt" stroke-miterlimit="1.41421"/><ellipse vector-effect="non-scaling-stroke" cx="32" cy="31" rx="28" ry="27" fill="none" stroke-width="1" stroke="rgb(255,255,255)" stroke-linejoin="round" stroke-linecap="round" stroke-miterlimit="1.5"/></g></g></svg>
